svg/u1f448_1f3ff.svg

<svg viewBox="0 0 128 128" xmlns="http://www.w3.org/2000/svg">
  <linearGradient id="a" gradientTransform="matrix(1 -.0020953 .0020953 1 -1297.5 1623.2)" gradientUnits="userSpaceOnUse" x1="1306.5" x2="1423.1" y1="-1556.3" y2="-1556.3">
    <stop offset=".1233" stop-color="#5C4037"/>
    <stop offset=".6476" stop-color="#70534A"/>
  </linearGradient>
  <path d="m78.23 108.17c-15.57 0-24.59-0.54-26.8-1.59-5.12-2.45-5.57-7.65-4.98-9.79 0.75-2.73-1.77-5.1-2.89-5.99-1.06-0.85-2.5-2.25-3.31-4.14-1-2.34-1.19-4.5-0.56-6.43 0.73-2.22 0.03-4.72-1.74-6.23-2.35-2-4.76-5.65-2.94-11.71 0.14-0.46 0.05-0.95-0.23-1.33s-0.73-0.6-1.2-0.6l-19.59 0.04c-2.61 0-8.34-2.21-8.34-8.79 0-5.59 5.92-6.85 7.99-6.85l57.07-0.12c0.82 0 1.48-0.66 1.5-1.48 0.01-0.82-0.63-1.5-1.45-1.52-0.03-0.01-1.79-0.25-8.53-4.13-6.71-3.88-10.73-7.76-8.48-14.1 1.15-3.23 4.8-3.58 6.31-3.58 1.92 0 3.52 0.49 4.2 0.94 5.37 3.58 10.57 5.69 16.08 7.93 5.82 2.36 11.85 4.8 18.69 9.25 1.27 0.83 2.4 1.85 3.33 3.04 4.37 5.55 10.05 9.27 16.42 10.75l1.29 0.3c1.12 0.26 1.92 1.25 1.93 2.41l0.34 39.69c0.01 1.13-0.73 2.13-1.82 2.44-0.09 0.02-0.17 0.06-0.25 0.1-0.24 0.11-23.68 11.46-40.13 11.49h-1.91z" fill="url(#a)"/>
  <path d="m60.06 21.33c1.76 0 3.03 0.46 3.37 0.69 5.5 3.67 10.77 5.81 16.35 8.07 5.76 2.34 11.71 4.75 18.44 9.12 1.14 0.74 2.14 1.65 2.97 2.71 4.59 5.82 10.55 9.72 17.25 11.29l1.29 0.3c0.45 0.1 0.77 0.5 0.77 0.96l0.35 39.7c0.01 0.45-0.29 0.85-0.73 0.97-0.17 0.05-0.34 0.11-0.5 0.19-0.23 0.11-23.36 11.31-39.47 11.34h-1.91c-20.14 0-25.04-0.91-26.17-1.45-4.22-2.02-4.64-6.36-4.18-8.04 0.69-2.53-0.55-5.28-3.41-7.56-0.93-0.74-2.18-1.96-2.86-3.55-0.85-2-1.03-3.8-0.51-5.37 0.93-2.84 0.07-5.91-2.19-7.84-2.92-2.49-3.75-5.9-2.48-10.14 0.27-0.91 0.1-1.89-0.47-2.66-0.57-0.76-1.46-1.21-2.41-1.21h-0.01l-19.58 0.04c-1.36 0-6.84-1.3-6.84-7.29 0-5.12 6.43-5.35 6.5-5.35l57.05-0.12h0.03c0.08 0 0.16 0 0.24-0.01 1.61-0.12 2.82-1.5 2.76-3.11-0.06-1.51-1.25-2.73-2.73-2.87-0.3-0.07-2.25-0.62-8.01-3.95-8.42-4.86-9.23-8.31-7.81-12.3 0.8-2.22 3.42-2.56 4.9-2.56m0-3c-3.09 0-6.51 1.14-7.73 4.58-2.23 6.28 0.58 10.96 9.14 15.9 7.14 4.12 8.99 4.33 9.23 4.33h0.03-0.01-0.01l-57.07 0.12c-3.15 0-9.49 2-9.49 8.35 0 7.67 6.67 10.29 9.84 10.29l19.59-0.04c-2.09 6.96 0.88 11.13 3.4 13.28 1.32 1.13 1.82 2.97 1.28 4.62-0.57 1.74-0.77 4.26 0.61 7.48 0.9 2.1 2.43 3.67 3.75 4.72s2.83 2.8 2.38 4.42c-0.81 2.98 0.16 8.85 5.78 11.54 3.16 1.51 16.28 1.74 27.47 1.74h1.92c17-0.04 40.78-11.64 40.78-11.64 1.74-0.49 2.93-2.09 2.91-3.89l-0.35-39.69c-0.02-1.84-1.3-3.43-3.09-3.85l-1.29-0.3c-6.24-1.45-11.61-5.19-15.58-10.22-0.94-1.19-2.15-2.36-3.69-3.37-13.46-8.74-23.88-9.92-34.76-17.17-1.02-0.68-2.95-1.2-5.04-1.2z" fill="#4A2F27"/>
  <path d="m53.71 59.36-21.17-0.46 1.7 2.45c0 0.59 0.77 1.04 1.65 0.97l17.84-0.77c1.78-0.14 1.76-2.1-0.02-2.19z" fill="#4A2F27"/>
  <path d="m78.73 43.2-6.97-2.81-2.47-0.94 0.87 3.32 0.94 3.23 7.48-0.09c1.38 0.01 1.24-2.15 0.15-2.71z" fill="#4A2F27"/>
  <path d="m54.11 76.47-13.07-0.77c-0.59-0.05-0.25 2.52-0.25 2.52 0 0.59 0.53 1.04 1.13 0.97l12.23-0.77c1.21-0.13 1.18-1.85-0.04-1.95z" fill="#4A2F27"/>
  <path d="m53.88 93.1-7.04-0.77c-0.32-0.05-0.13 2.52-0.13 2.52 0 0.59 0.28 1.04 0.61 0.97l6.58-0.77c0.65-0.14 0.63-1.86-0.02-1.95z" fill="#4A2F27"/>
</svg>

<svg viewBox="0 0 128 128" xmlns="http://www.w3.org/2000/svg">
  <defs>
    <linearGradient id="a" gradientTransform="matrix(1 -0.002095 0.002095 1 0 0)" gradientUnits="userSpaceOnUse" x1="5.60462" x2="122.20462" y1="64.174234" y2="64.174234">
      <stop offset=".1233" stop-color="#5C4037"/>
      <stop offset=".6476" stop-color="#70534A"/>
    </linearGradient>
  </defs>
  <path d="M78.23,108.17 C62.66,108.17 53.64,107.63 51.43,106.58 C46.31,104.13 45.86,98.93 46.45,96.79 C47.2,94.06 44.68,91.69 43.56,90.8 C42.5,89.95 41.06,88.55 40.25,86.66 C39.25,84.32 39.06,82.16 39.69,80.23 C40.42,78.01 39.72,75.51 37.95,74 C35.6,72 33.19,68.35 35.01,62.29 C35.15,61.83 35.06,61.34 34.78,60.96 C34.5,60.58 34.05,60.36 33.58,60.36 L13.99,60.4 C11.38,60.4 5.65,58.19 5.65,51.61 C5.65,46.02 11.57,44.76 13.64,44.76 L70.71,44.64 C71.53,44.64 72.19,43.98 72.21,43.16 C72.22,42.34 71.58,41.66 70.76,41.64 C70.73,41.63 68.97,41.39 62.23,37.51 C55.52,33.63 51.5,29.75 53.75,23.41 C54.9,20.18 58.55,19.83 60.06,19.83 C61.98,19.83 63.58,20.32 64.26,20.77 C69.63,24.35 74.83,26.46 80.34,28.7 C86.16,31.06 92.19,33.5 99.03,37.95 C100.3,38.78 101.43,39.8 102.36,40.99 C106.73,46.54 112.41,50.26 118.78,51.74 L120.07,52.04 C121.19,52.3 121.99,53.29 122,54.45 L122.34,94.14 C122.35,95.27 121.61,96.27 120.52,96.58 C120.43,96.6 120.35,96.64 120.27,96.68 C120.03,96.79 96.59,108.14 80.14,108.17 L78.23,108.17 Z" fill="url(#a)"/>
  <path d="M60.06,21.33 C61.82,21.33 63.09,21.79 63.43,22.02 C68.93,25.69 74.2,27.83 79.78,30.09 C85.54,32.43 91.49,34.84 98.22,39.21 C99.36,39.95 100.36,40.86 101.19,41.92 C105.78,47.74 111.74,51.64 118.44,53.21 L119.73,53.51 C120.18,53.61 120.5,54.01 120.5,54.47 L120.85,94.17 C120.86,94.62 120.56,95.02 120.12,95.14 C119.95,95.19 119.78,95.25 119.62,95.33 C119.39,95.44 96.26,106.64 80.15,106.67 L78.24,106.67 C58.1,106.67 53.2,105.76 52.07,105.22 C47.85,103.2 47.43,98.86 47.89,97.18 C48.58,94.65 47.34,91.9 44.48,89.62 C43.55,88.88 42.3,87.66 41.62,86.07 C40.77,84.07 40.59,82.27 41.11,80.7 C42.04,77.86 41.18,74.79 38.92,72.86 C36,70.37 35.17,66.96 36.44,62.72 C36.71,61.81 36.54,60.83 35.97,60.06 C35.4,59.3 34.51,58.85 33.56,58.85 L33.55,58.85 L13.97,58.89 C12.61,58.89 7.13,57.59 7.13,51.6 C7.13,46.48 13.56,46.25 13.63,46.25 L70.68,46.13 L70.71,46.13 C70.79,46.13 70.87,46.13 70.95,46.12 C72.56,46 73.77,44.62 73.71,43.01 C73.65,41.5 72.46,40.28 70.98,40.14 C70.68,40.07 68.73,39.52 62.97,36.19 C54.55,31.33 53.74,27.88 55.16,23.89 C55.96,21.67 58.58,21.33 60.06,21.33 M60.06,18.33 C56.97,18.33 53.55,19.47 52.33,22.91 C50.1,29.19 52.91,33.87 61.47,38.81 C68.61,42.93 70.46,43.14 70.7,43.14 L70.73,43.14 L70.72,43.14 L70.71,43.14 L13.64,43.26 C10.49,43.26 4.15,45.26 4.15,51.61 C4.15,59.28 10.82,61.9 13.99,61.9 L33.58,61.86 C31.49,68.82 34.46,72.99 36.98,75.14 C38.3,76.27 38.8,78.11 38.26,79.76 C37.69,81.5 37.49,84.02 38.87,87.24 C39.77,89.34 41.3,90.91 42.62,91.96 C43.94,93.01 45.45,94.76 45,96.38 C44.19,99.36 45.16,105.23 50.78,107.92 C53.94,109.43 67.06,109.66 78.25,109.66 L80.17,109.66 C97.17,109.62 120.95,98.02 120.95,98.02 C122.69,97.53 123.88,95.93 123.86,94.13 L123.51,54.44 C123.49,52.6 122.21,51.01 120.42,50.59 L119.13,50.29 C112.89,48.84 107.52,45.1 103.55,40.07 C102.61,38.88 101.4,37.71 99.86,36.7 C86.4,27.96 75.98,26.78 65.1,19.53 C64.08,18.85 62.15,18.33 60.06,18.33 Z" fill="#4A2F27"/>
  <path d="M53.71,59.36 L32.54,58.9 L34.24,61.35 C34.24,61.94 35.01,62.39 35.89,62.32 L53.73,61.55 C55.51,61.41 55.49,59.45 53.71,59.36 Z" fill="#4A2F27"/>
  <path d="M78.73,43.2 L71.76,40.39 L69.29,39.45 L70.16,42.77 L71.1,46 L78.58,45.91 C79.96,45.92 79.82,43.76 78.73,43.2 Z" fill="#4A2F27"/>
  <path d="M54.11,76.47 L41.04,75.7 C40.45,75.65 40.79,78.22 40.79,78.22 C40.79,78.81 41.32,79.26 41.92,79.19 L54.15,78.42 C55.36,78.29 55.33,76.57 54.11,76.47 Z" fill="#4A2F27"/>
  <path d="M53.88,93.1 L46.84,92.33 C46.52,92.28 46.71,94.85 46.71,94.85 C46.71,95.44 46.99,95.89 47.32,95.82 L53.9,95.05 C54.55,94.91 54.53,93.19 53.88,93.1 Z" fill="#4A2F27"/>
</svg>
